X:1
T:Title
%%score { 1 | 2 }
L:1/8
M:3/4
K:Ab
V:1 treble nm="Grand Piano"
V:2 bass 
V:1
 z2 z2[Q:1/4=100] E>E | [CE]3 [CE] [DF][CE] | [CE] [CA]3 [CE]>[CE] | E3 E FE |[M:2/4] B4 | %5
[M:1/4] E>E |[M:3/4] [Cc]3 [DB] [CA][EG] | [DG] [DF]3 [Fc]>[FB] | A3 G FG |[M:2/4] [A,CA]4 | %10
[M:1/4] [CEA]>[CEA] |[M:3/4] [EGB]3 [EGB] [=DFA][B,DF] | [B,EG] [GB]3 [GB]>[Ge] | %13
 [A=d]3 [=DAc] [DGB][B,FA] |[M:2/4] G4 |[M:1/4] B>B |[M:3/4] [=DB]3 [DB] [FA][DF] | %17
 [EG] [GB]3 [GB]>[Ge] | =d3 [=DB] [FA][DF] |[M:2/4] E4 |[M:1/4] E>E |[M:3/4] [CE]3 [CE] [DF][CE] | %22
 [CE] [CA]3 [CE]>[CE] | E3 E FE |[M:2/4] B4 |[M:1/4] E>E |[M:3/4] [Cc]3 [DB] [CA][EG] | %27
 [DG] [DF]3 [Fc]>[FB] | A3 G FG |[M:6/4] .[CA]6 z6 |] %30
V:2
 z2 z2 [E,G,D]>[E,G,D] | [A,,A,]3 [A,,A,] [A,,A,][A,,A,] | [A,,A,] [A,,A,]3 [A,,A,]>[A,,A,] | %3
 [E,G,D]3 [E,G,D] [E,A,D][E,G,D] |[M:2/4] [E,G,D]4 |[M:1/4] [E,G,D]>[E,G,D] | %6
[M:3/4] [A,,A,]3 [A,,A,] [A,,A,][A,,A,] | [D,A,] [D,A,]3 [D,=A,]>[D,B,] | %8
 [E,CE]3 [E,B,D] [E,A,D][E,B,D] |[M:2/4] A,,4 |[M:1/4] A,>A, |[M:3/4] E,3 E, B,,B,, | %12
 E, [E,E]3 [E,E]>[E,B,] | B,3 B,, C,=D, |[M:2/4] [E,B,E]4 |[M:1/4] [E,G,E]>[E,G,E] | %16
[M:3/4] [B,,F,]3 [B,,F,] [B,,B,][B,,B,] | [E,B,] [E,E]3 [E,E]>[E,B,] | %18
 [B,F]3 [B,,B,] [B,,B,][B,,A,] |[M:2/4] [E,G,]4 |[M:1/4] [E,G,D]>[E,G,D] | %21
[M:3/4] [A,,A,]3 [A,,A,] [A,,A,][A,,A,] | [A,,A,] [A,,A,]3 [A,,A,]>[A,,A,] | %23
 [E,G,D]3 [E,G,D] [E,A,D][E,G,D] |[M:2/4] [E,G,D]4 |[M:1/4] [E,G,D]>[E,G,D] | %26
[M:3/4] [A,,A,]3 [A,,A,] [A,,A,][A,,A,] | [D,A,] [D,A,]3 [D,=A,]>[D,B,] | %28
 [E,CE]3 [E,B,D] [E,A,D][E,B,D] |[M:6/4] .[A,,A,]6 z6 |] %30

